public/img/old-svg/apple=pay.svg

<svg width="44" height="20" viewBox="0 0 44 20" fill="none" xmlns="http://www.w3.org/2000/svg">
<path d="M8.8159 2.5493C9.35625 1.89132 9.74274 1.01403 9.62552 0.136719C8.81591 0.17328 7.85061 0.64847 7.26997 1.26991C6.76809 1.81822 6.30467 2.73207 6.42006 3.57282C7.3469 3.68249 8.23526 3.20728 8.8159 2.5493ZM9.62552 3.79214C8.31403 3.71903 7.19303 4.48668 6.57575 4.48668C5.95664 4.48668 4.99135 3.8287 3.94912 3.8287C2.59734 3.86526 1.36094 4.55978 0.66673 5.72952C-0.723521 8.0324 0.28024 11.432 1.67049 13.2962C2.32623 14.2101 3.13769 15.2336 4.17991 15.1971C5.18551 15.1605 5.572 14.5756 6.76809 14.5756C7.96601 14.5756 8.31403 15.1971 9.39472 15.1605C10.4754 15.1239 11.1715 14.2468 11.8272 13.2962C12.6002 12.2361 12.9097 11.2127 12.9097 11.1761C12.8713 11.1395 10.785 10.4084 10.785 8.14207C10.7465 6.24128 12.4078 5.32743 12.4848 5.29087C11.5964 3.97491 10.1292 3.8287 9.62552 3.79214Z" fill="black"/>
<path d="M20.013 2.28809C22.595 2.28809 24.3732 4.1056 24.3732 6.70718C24.3732 9.34433 22.5603 11.1619 19.9435 11.1619H17.1183V15.7592H15.0605V2.28809H20.013ZM17.1183 9.41572H19.4555C21.2337 9.41572 22.246 8.41778 22.246 6.74281C22.246 5.03219 21.2337 4.06997 19.4555 4.06997H17.0835V9.41572H17.1183ZM24.8959 13.015C24.8959 11.3045 26.1861 10.2354 28.4887 10.0927L31.1385 9.95013V9.20189C31.1385 8.09704 30.4074 7.45556 29.2214 7.45556C28.0702 7.45556 27.3721 8.02577 27.1985 8.88114H25.3144C25.4203 7.09918 26.9189 5.78059 29.2909 5.78059C31.6282 5.78059 33.1268 7.02791 33.1268 9.02358V15.7949H31.2444V14.1911H31.2097C30.6506 15.296 29.4298 15.973 28.1744 15.973C26.2209 15.973 24.8959 14.7614 24.8959 13.015ZM31.1385 12.1242V11.3401L28.7682 11.4827C27.5822 11.5539 26.9189 12.0885 26.9189 12.9438C26.9189 13.7991 27.6169 14.3692 28.6623 14.3692C30.0584 14.3692 31.1385 13.4072 31.1385 12.1242ZM34.8719 19.4298V17.7906C35.0108 17.8261 35.3599 17.8261 35.4988 17.8261C36.4053 17.8261 36.8932 17.4341 37.2075 16.4364C37.2075 16.4007 37.3828 15.8304 37.3828 15.8304L33.8943 5.99442H36.0215L38.463 14.013H38.4977L40.9392 5.99442H43.0317L39.4405 16.365C38.6036 18.7528 37.6607 19.5011 35.6725 19.5011C35.5335 19.4655 35.0456 19.4655 34.8719 19.4298Z" fill="black"/>
</svg>

<svg width="44" height="20" viewBox="0 0 44 20" fill="none" xmlns="http://www.w3.org/2000/svg"><path d="M8.816 2.55c.54-.659.927-1.536.81-2.413C8.816.173 7.85.648 7.27 1.27c-.502.548-.965 1.462-.85 2.303.927.11 1.815-.366 2.396-1.024zm.81 1.242c-1.312-.073-2.433.695-3.05.695-.62 0-1.585-.658-2.627-.658-1.352.036-2.588.73-3.282 1.9-1.39 2.303-.387 5.703 1.003 7.567.656.914 1.468 1.938 2.51 1.901 1.006-.036 1.392-.621 2.588-.621 1.198 0 1.546.621 2.627.585 1.08-.037 1.777-.914 2.432-1.865.773-1.06 1.083-2.083 1.083-2.12-.039-.037-2.125-.768-2.125-3.034-.039-1.9 1.623-2.815 1.7-2.851-.889-1.316-2.356-1.462-2.86-1.499zm10.387-1.504c2.582 0 4.36 1.818 4.36 4.42 0 2.636-1.813 4.454-4.43 4.454h-2.825v4.597h-2.057V2.29h4.952zm-2.895 7.128h2.338c1.778 0 2.79-.998 2.79-2.673 0-1.71-1.012-2.673-2.79-2.673h-2.372v5.346h.034zm7.778 3.599c0-1.71 1.29-2.78 3.593-2.922l2.65-.143v-.748c0-1.105-.732-1.746-1.918-1.746-1.15 0-1.849.57-2.023 1.425h-1.884c.106-1.782 1.605-3.1 3.977-3.1 2.337 0 3.836 1.247 3.836 3.243v6.77h-1.883v-1.603h-.034c-.56 1.105-1.78 1.782-3.036 1.782-1.953 0-3.278-1.212-3.278-2.958zm6.242-.89v-.785l-2.37.143c-1.186.07-1.85.605-1.85 1.46 0 .856.699 1.426 1.744 1.426 1.396 0 2.477-.962 2.477-2.245zm3.734 7.305v-1.64c.139.036.488.036.627.036.906 0 1.394-.392 1.709-1.39 0-.035.175-.606.175-.606l-3.489-9.836h2.128l2.441 8.019h.035l2.441-8.019h2.093L39.44 16.365c-.837 2.388-1.78 3.136-3.769 3.136-.139-.036-.626-.036-.8-.071z" fill="#000"/></svg>
